X: 19
M: 2/4
L: 1/8
K: A
V: 1
|:\
|:\
eAae | dBbd | cAac | B/A/G/F/ EB |\
ecae | dBbd | cAac | B2B2 |
V: 2 clef=bass middle=d
|:\
a2a2 | c'2a2 | b2ge | a2A2 | a2a2 | c'2a2 |
b2ge | a2A2 :||: c2c2 | B2G2 | A2A2 | e2z2 | c2c2 |
a2a2 | c'2a2 | b2ge | a2A2 :| A2a2 | g2e2 | a2A2 |
e2z2 | A2a2 | g2e2 | a2A2 | e2"_Da Capo"z2 |]


